X: 60
T:All The Way To Galway
% Nottingham Music Database
S:Kevin Briggs, via EF
M:4/4
L:1/4
K:D

F/2G/2|"D"A3/2B/2 AG|"D"FA d2|"Em"EF GF|"A7"EF G^G|"D"A3/2B/2 AG|"D"FA d2|\
"A7"cA GE|"D"D2 D:||:
A|"D"d3/2e/2 fd|"A"cA A2|"G"BG G/2A/2B/2G/2|"D"BA "A7"A2|"D"d3/2e/2 fd|\
"A"ca a3/2a/2|"G"ba "A7"ge|"D"d3:|


